Papirus-Dark/16x16/actions/view-bank-account-savings.svg

<?xml version="1.0" encoding="UTF-8" standalone="no"?>
<!--Created with Inkscape (http://www.inkscape.org/)-->
<svg id="svg7384" xmlns:rdf="http://www.w3.org/1999/02/22-rdf-syntax-ns#" style="enable-background:new" xmlns="http://www.w3.org/2000/svg" height="16" width="16" version="1.1" xmlns:cc="http://creativecommons.org/ns#" xmlns:dc="http://purl.org/dc/elements/1.1/">
 <metadata id="metadata90">
  <rdf:RDF>
   <cc:Work rdf:about="">
    <dc:format>image/svg+xml</dc:format>
    <dc:type rdf:resource="http://purl.org/dc/dcmitype/StillImage"/>
   </cc:Work>
  </rdf:RDF>
 </metadata>
 <g id="layer12" transform="translate(-465 99.003)">
  <path id="path16259-2" opacity="1" fill="#d3dae3" transform="translate(465 -99.003)" d="m7 1-7 7h2v7h10v-7h2zm0 5c1.1046 0 2 0.89547 2 2s-0.89543 2-2 2c2.9999-0.0018 3 2.4004 3 2.4004v0.6h-6v-0.6s-0.0001-2.398 3-2.4c-1.1046 0-2-0.8955-2-2s0.8954-2 2-2zm7 5v2h-1l1.5 3 1.5-3h-1v-2z"/>
 </g>
</svg>

<?xml version="1.0" encoding="UTF-8" standalone="no"?>
<svg xmlns="http://www.w3.org/2000/svg" width="16" height="16" viewBox="0 0 16 16">
 <defs>
  <style type="text/css" id="current-color-scheme">
   .ColorScheme-Text { color:#d3dae3; }
  </style>
 </defs>
 <path style="fill:currentColor;opacity:1" class="ColorScheme-Text" d="M 7 1 L 0 8 L 2 8 L 2 15 L 12 15 L 12 8 L 14 8 L 7 1 z M 7 6 C 8.1046 6 9 6.89547 9 8 C 9 9.10453 8.10457 10 7 10 C 9.9999 9.9982 10 12.400391 10 12.400391 L 10 13 L 4 13 L 4 12.400391 C 4 12.400391 3.9999 10.002 7 10 C 5.8954 10 5 9.1045 5 8 C 5 6.8955 5.8954 6 7 6 z M 14 11 L 14 13 L 13 13 L 14.5 16 L 16 13 L 15 13 L 15 11 L 14 11 z"/>
</svg>
